X:3
T: De szeretnék hajnal csillag lenni
M:4/4
L:1/4
K:F
d d d<c | A<F A<G | D2 D2 |
f<f e<d | e<c e<d | A2 A2 |
f f e d | ec d2 | A G F2 |
d d d c | A<F A<G | D2 D2 |

